X: 33610
T: Rakish Paddy
R: reel
M: 4/4
K: Dmixolydian
|:c2 cB c2 Bd|AdGd ADDc|ddd^c d3e|fdeg fded|
cded (3cdc Bd|AdGdADDC|DEFG Adde|cBAd ADD2:|
efgb (3agf g2|gagf eBce|d2 ad bdad|abag fddf|
ecgc acgf|gfga gfe^c|defg abag|fage d^cde:|

